packages/components/icons/assets/GroupFill.svg

<svg viewBox="0 0 24 24" xmlns="http://www.w3.org/2000/svg" data-title="GroupFill" fill="currentColor" stroke="none">
  <path fill-rule="evenodd" clip-rule="evenodd" d="M5.13042 19.2658C3.20277 17.4429 2 14.8613 2 11.999C2 6.4765 6.47748 1.99902 12 1.99902C17.5225 1.99902 22 6.4765 22 11.999C22 14.8613 20.7972 17.4429 18.8695 19.2659L18.8749 19.276L18.6766 19.4436C16.9061 21.0325 14.5659 21.999 12 21.999C9.43486 21.999 7.09519 21.033 5.32495 19.445L5.125 19.276L5.13042 19.2658ZM9.70767 8.24926C10.3955 8.24926 10.9579 8.81171 10.9579 9.49947C10.9579 10.1872 10.3955 10.7497 9.70767 10.7497C9.01988 10.7497 8.45746 10.1872 8.45746 9.49947C8.45746 8.81171 9.01988 8.24926 9.70767 8.24926ZM9.70755 11.9999C11.089 11.9999 12.208 10.8809 12.208 9.49945C12.208 8.11804 11.089 6.99902 9.70755 6.99902C8.32668 6.99902 7.20711 8.11804 7.20711 9.49945C7.20711 10.8809 8.32668 11.9999 9.70755 11.9999ZM9.57883 12.872C7.56015 12.872 5.82151 14.2499 5.35143 16.2232C5.27142 16.558 5.46423 16.898 5.78151 16.9816C6.09878 17.0657 6.42106 16.8627 6.50108 16.528C6.83891 15.1118 8.10469 14.1222 9.57883 14.1222C11.053 14.1222 12.3193 15.1118 12.6566 16.528C12.7238 16.8115 12.9661 17.001 13.2311 17.001C13.2789 17.001 13.3278 16.9945 13.3762 16.9816C13.6934 16.898 13.8862 16.558 13.8062 16.2232C13.3361 14.2499 11.5975 12.872 9.57883 12.872ZM15.1247 8.77041C15.717 8.77041 16.201 9.25461 16.201 9.84707C16.201 10.4389 15.717 10.9231 15.1247 10.9231C14.5323 10.9231 14.0478 10.4389 14.0478 9.84707C14.0478 9.25461 14.5323 8.77041 15.1247 8.77041ZM15.1244 11.9998C16.3138 11.9998 17.2776 11.0367 17.2776 9.84712C17.2776 8.6575 16.3138 7.69381 15.1244 7.69381C13.9351 7.69381 12.9713 8.6575 12.9713 9.84712C12.9713 11.0367 13.9351 11.9998 15.1244 11.9998ZM18.6538 15.6487C18.6532 15.6446 18.6544 15.6405 18.6532 15.6364C18.2915 14.1173 17.0546 13.0147 15.5549 12.7965C15.3771 12.7706 15.1971 12.7506 15.0132 12.7506C14.9982 12.7506 14.9843 12.7541 14.9687 12.7547C14.7748 12.757 14.5831 12.7717 14.3964 12.8029C14.3131 12.8171 14.2347 12.8429 14.153 12.8629C14.038 12.89 13.9213 12.9141 13.8102 12.9518C13.7179 12.983 13.6313 13.0259 13.5424 13.0636C13.4485 13.1042 13.3534 13.1412 13.2634 13.1889C13.1773 13.2348 13.0967 13.2901 13.0145 13.3424C12.9484 13.3836 12.8834 13.426 12.8211 13.4713C13.0884 13.7054 13.3207 13.9773 13.534 14.2655C13.9635 13.9914 14.4692 13.8272 15.0132 13.8272C16.2828 13.8272 17.3725 14.6797 17.6636 15.8988C17.7148 16.1135 17.8826 16.2576 18.077 16.2918H18.1582C18.316 16.2918 18.4643 16.2153 18.561 16.0853C18.6082 16.0217 18.6394 15.9488 18.6555 15.8717C18.656 15.8693 18.6577 15.867 18.6583 15.8646C18.6721 15.794 18.6677 15.7205 18.6538 15.6487Z"/>
</svg>

<svg viewBox="0 0 24 24" xmlns="http://www.w3.org/2000/svg" data-title="GroupFill" fill="currentColor" stroke="none">
  <path fill-rule="evenodd" d="m5.13,19.27c-1.93-1.82-3.13-4.4-3.13-7.27C2,6.48,6.48,2,12,2s10,4.48,10,10c0,2.86-1.2,5.44-3.13,7.27h0s-.2.18-.2.18c-1.77,1.59-4.11,2.56-6.68,2.56s-4.9-.97-6.68-2.55l-.2-.17h0Zm4.58-11.02c.69,0,1.25.56,1.25,1.25s-.56,1.25-1.25,1.25-1.25-.56-1.25-1.25.56-1.25,1.25-1.25Zm0,3.75c1.38,0,2.5-1.12,2.5-2.5s-1.12-2.5-2.5-2.5-2.5,1.12-2.5,2.5,1.12,2.5,2.5,2.5Zm-.13.87c-2.02,0-3.76,1.38-4.23,3.35-.08.33.11.67.43.76.32.08.64-.12.72-.45.34-1.42,1.6-2.41,3.08-2.41s2.74.99,3.08,2.41c.07.28.31.47.57.47.05,0,.1,0,.15-.02.32-.08.51-.42.43-.76-.47-1.97-2.21-3.35-4.23-3.35Zm5.55-4.1c.59,0,1.08.48,1.08,1.08s-.48,1.08-1.08,1.08-1.08-.48-1.08-1.08.48-1.08,1.08-1.08Zm0,3.23c1.19,0,2.15-.96,2.15-2.15s-.96-2.15-2.15-2.15-2.15.96-2.15,2.15.96,2.15,2.15,2.15Zm3.53,3.65s0,0,0-.01c-.36-1.52-1.6-2.62-3.1-2.84-.18-.03-.36-.05-.54-.05-.01,0-.03,0-.04,0-.19,0-.39.02-.57.05-.08.01-.16.04-.24.06-.11.03-.23.05-.34.09-.09.03-.18.07-.27.11-.09.04-.19.08-.28.13-.09.05-.17.1-.25.15-.07.04-.13.08-.19.13.27.23.5.51.71.79.43-.27.94-.44,1.48-.44,1.27,0,2.36.85,2.65,2.07.05.21.22.36.41.39h.08c.16,0,.31-.08.4-.21.05-.06.08-.14.09-.21,0,0,0,0,0,0,.01-.07,0-.14,0-.22Z"/>
</svg>
